X:181
T:Pibddawns Jones - Jones' Hornpipe
M:2/4
L:1/16
Q:90
C:Trad.
R:Hornpipe
K:D
FG | A2A2 AGFE | B2B2 BAGF | A2A2 AGFE | EDEF GFED | A2A2 AGFE|
B2B2 BAGF | DAFD E2E2 |1 F2D2 D2 :||2 F2D2 D4 ||
AF DF A2A2 | BGDG B2B2 | AFDF A2A2 | G E2 E G2G2 | AFDF A2A2
| BGDG B2B2 | AdcB AGFE |1 D2F2 D4 :||2 D2F2 D2 ||
